storage/app/icons/phosphoricons/thin/intersect-square-thin.svg

<svg xmlns="http://www.w3.org/2000/svg" fill="currentColor" viewBox="0 0 256 256"><path d="M216 92h-52V40a4 4 0 0 0-4-4H40a4 4 0 0 0-4 4v120a4 4 0 0 0 4 4h52v52a4 4 0 0 0 4 4h120a4 4 0 0 0 4-4V96a4 4 0 0 0-4-4M44 156V44h112v48H96a4 4 0 0 0-4 4v60Zm56-50.34L150.34 156H100Zm56 44.68L105.66 100H156ZM212 212H100v-48h60a4 4 0 0 0 4-4v-60h48Z"/></svg>

<svg xmlns="http://www.w3.org/2000/svg" viewBox="0 0 256 256" fill="currentColor"><path d="M216,92H164V40a4,4,0,0,0-4-4H40a4,4,0,0,0-4,4V160a4,4,0,0,0,4,4H92v52a4,4,0,0,0,4,4H216a4,4,0,0,0,4-4V96A4,4,0,0,0,216,92ZM44,156V44H156V92H96a4,4,0,0,0-4,4v60Zm56-50.34L150.34,156H100Zm56,44.68L105.66,100H156ZM212,212H100V164h60a4,4,0,0,0,4-4V100h48Z"/></svg>
